icon-themes/breeze_svg/cmd/lc_formatarea.svg

<svg viewBox="0 0 24 24" xmlns="http://www.w3.org/2000/svg"><path d="m11.5 4c-1.385 0-2.5 1.115-2.5 2.5v2.5l-5 5 6 6 7-7-3-3v-3.5c0-1.385-1.115-2.5-2.5-2.5zm0 1c.831 0 1.5.669 1.5 1.5v2.5l-2-2-1 1v-1.5c0-.831.669-1.5 1.5-1.5zm-.5 3.4140625 4.535156 4.5371095c-3.53535 4.04969-5.5359335-1.951052-10.1210935 1.048828zm7.5 3.5859375s-1.5 2.67157-1.5 3.5.67157 1.5 1.5 1.5 1.5-.67157 1.5-1.5-1.5-3.5-1.5-3.5z" fill="#4d4d4d"/></svg>

<svg xmlns="http://www.w3.org/2000/svg" viewBox="0 0 24 24">
 <path 
     style="fill:#4d4d4d" 
     d="M 11.5 4 C 10.115 4 9 5.115 9 6.5 L 9 9 L 4 14 L 10 20 L 17 13 L 14 10 L 14 6.5 C 14 5.115 12.885 4 11.5 4 z M 11.5 5 C 12.331 5 13 5.669 13 6.5 L 13 9 L 11 7 L 10 8 L 10 6.5 C 10 5.669 10.669 5 11.5 5 z M 11 8.4140625 L 15.535156 12.951172 C 11.999806 17.000862 9.9992225 11.00012 5.4140625 14 L 11 8.4140625 z M 18.5 12 C 18.5 12 17 14.67157 17 15.5 C 17 16.32843 17.67157 17 18.5 17 C 19.32843 17 20 16.32843 20 15.5 C 20 14.67157 18.5 12 18.5 12 z "
     />
 </svg>
